X: 37753
T: Some Boy John
R: reel
M: 4/4
K: Eminor
M:12/8
G,-|:G,2D G2B A3 G2F|D3 C2D F2D C2D|
G,2D G2B A3 GAB|1 c3 A2c B2A G2F:|2 c3 A2c B2A G2A]|
|:B3 A2B G2B BBB|A2B G2F D2F G2A|
B3 A2B G2F D2B,|1 C2B,- B,2C D2F G2A:|2 C2B,- B,2C D2G z2||

